T: Barn Dance Schottische, The
M: 4/4
L: 1/8
K: Gmaj
d2 G2 G>DG>A | (3BcB A>^G A2 A>B | c2 F2 F>DF>G | (3ABA G2 G>DB>c | d2 G2 G2 (3FGA | B2 A2 A2 B2 | c2 F2 F>DF>G | A2 G2 G2 :| D2 G2 G>GA>B | c2 A2 A2 e2 | g2 f>e d>ef>g | a2 g2 g2 f>e |B2 G2 (3GGG A>B | c2 c>B A2 d>g | f>af>e d>ef>g | a2 g2 g2 ||B2 G2 G>GA>B | c2 E2 E>EA>G | F2 D2 D>DE>F | G>FG>B e2 d>c |
